apps/16/youtube.svg

<?xml version="1.0" encoding="UTF-8" standalone="no"?>
<!-- Created with Inkscape (http://www.inkscape.org/) -->

<svg
   xmlns:dc="http://purl.org/dc/elements/1.1/"
   xmlns:cc="http://creativecommons.org/ns#"
   xmlns:rdf="http://www.w3.org/1999/02/22-rdf-syntax-ns#"
   xmlns:svg="http://www.w3.org/2000/svg"
   xmlns="http://www.w3.org/2000/svg"
   xmlns:sodipodi="http://sodipodi.sourceforge.net/DTD/sodipodi-0.dtd"
   xmlns:inkscape="http://www.inkscape.org/namespaces/inkscape"
   version="1.1"
   width="16"
   height="16"
   id="svg13094"
   inkscape:version="0.91+devel r"
   sodipodi:docname="youtube.svg"
   inkscape:export-filename="folder.png"
   inkscape:export-xdpi="90"
   inkscape:export-ydpi="90">
  <sodipodi:namedview
     pagecolor="#ffffff"
     bordercolor="#666666"
     borderopacity="1"
     objecttolerance="10"
     gridtolerance="10"
     guidetolerance="10"
     inkscape:pageopacity="0"
     inkscape:pageshadow="2"
     inkscape:window-width="1920"
     inkscape:window-height="1027"
     id="namedview6"
     showgrid="true"
     inkscape:snap-bbox="true"
     inkscape:bbox-paths="true"
     inkscape:bbox-nodes="true"
     inkscape:snap-bbox-edge-midpoints="true"
     inkscape:snap-bbox-midpoints="true"
     inkscape:object-paths="true"
     inkscape:snap-intersection-paths="true"
     inkscape:object-nodes="true"
     inkscape:snap-smooth-nodes="true"
     inkscape:snap-midpoints="true"
     inkscape:snap-object-midpoints="true"
     inkscape:snap-center="true"
     inkscape:zoom="32"
     inkscape:cx="11.876549"
     inkscape:cy="10.254647"
     inkscape:window-x="-10"
     inkscape:window-y="31"
     inkscape:window-maximized="1"
     inkscape:current-layer="svg13094"
     inkscape:snap-global="true">
    <inkscape:grid
       type="xygrid"
       id="grid2983"
       empspacing="5"
       visible="true"
       enabled="true"
       snapvisiblegridlinesonly="true" />
  </sodipodi:namedview>
  <defs
     id="defs7" />
  <metadata
     id="metadata13099">
    <rdf:RDF>
      <cc:Work
         rdf:about="">
        <dc:format>image/svg+xml</dc:format>
        <dc:type
           rdf:resource="http://purl.org/dc/dcmitype/StillImage" />
        <dc:title></dc:title>
      </cc:Work>
    </rdf:RDF>
  </metadata>
  <path
     sodipodi:nodetypes="ssssssssscccc"
     inkscape:connector-curvature="0"
     style="color:#000000;display:inline;overflow:visible;visibility:visible;opacity:1;fill:#27303a;fill-opacity:0.753280819999999968;fill-rule:nonzero;stroke:none;stroke-width:1;stroke-linecap:butt;stroke-linejoin:miter;stroke-miterlimit:4;stroke-dasharray:none;stroke-dashoffset:0;stroke-opacity:1;marker:none;enable-background:accumulate"
     d="M 8,3 C 6.8262571,3 2.5287874,3.1145174 1.7413194,3.7883113 1.03694,4.3910109 1,5.8071662 1,8.5 1,11.192834 1.03694,12.608989 1.7413194,13.211688 2.5287874,13.885482 6.8262571,14 8,14 9.1737429,14 13.471212,13.885482 14.258681,13.211688 14.963063,12.608989 15,11.192834 15,8.5 15,5.8071662 14.96306,4.3910109 14.258681,3.7883113 13.471212,3.1145174 9.1737429,3 8,3 Z M 6,6 11,8.5 6,11 Z"
     id="path4140" />
  <path
     style="color:#000000;font-style:normal;font-variant:normal;font-weight:normal;font-stretch:normal;font-size:medium;line-height:normal;font-family:sans-serif;text-indent:0;text-align:start;text-decoration:none;text-decoration-line:none;text-decoration-style:solid;text-decoration-color:#000000;letter-spacing:normal;word-spacing:normal;text-transform:none;direction:ltr;block-progression:tb;writing-mode:lr-tb;baseline-shift:baseline;text-anchor:start;white-space:normal;shape-padding:0;clip-rule:nonzero;display:inline;overflow:visible;visibility:visible;opacity:1;isolation:auto;mix-blend-mode:normal;color-interpolation:sRGB;color-interpolation-filters:linearRGB;solid-color:#000000;solid-opacity:1;fill:#f1f3f5;fill-opacity:0.90288714000000003;fill-rule:nonzero;stroke:none;stroke-width:2;stroke-linecap:butt;stroke-linejoin:miter;stroke-miterlimit:4;stroke-dasharray:none;stroke-dashoffset:0;stroke-opacity:1;marker:none;color-rendering:auto;image-rendering:auto;shape-rendering:auto;text-rendering:auto;enable-background:accumulate"
     d="m 8,1.9003906 c -0.6226457,0 -1.9990992,0.027524 -3.3671875,0.1445313 C 3.9487684,2.1034257 3.2701327,2.1841004 2.671875,2.3027344 2.0736173,2.4213684 1.5860924,2.4733627 1.0253906,2.953125 0.35704468,3.5249927 0.1272982,4.343366 0.015625,5.2226562 -0.0960482,6.1019466 -0.09960937,7.1485532 -0.09960937,8.5 c 0,1.3514469 0.0035612,2.398054 0.11523437,3.277344 0.1116732,0.87929 0.34141934,1.697664 1.0097656,2.269531 0.5607018,0.479762 1.0482267,0.531757 1.6464844,0.650391 0.5982577,0.118634 1.2768934,0.199308 1.9609375,0.257812 C 6.0009008,15.072086 7.3773542,15.099609 8,15.099609 c 0.6226458,0 1.9990988,-0.02752 3.367188,-0.144531 0.684044,-0.0585 1.362679,-0.139178 1.960937,-0.257812 0.598258,-0.118634 1.085783,-0.170629 1.646484,-0.650391 0.668349,-0.571867 0.898093,-1.390241 1.009766,-2.269531 0.111673,-0.879291 0.115234,-1.9258975 0.115234,-3.277344 0,-1.3514468 -0.0036,-2.3980535 -0.115234,-3.2773438 C 15.872702,4.3433661 15.642955,3.5249928 14.974609,2.953125 14.413908,2.4733634 13.926383,2.4213684 13.328125,2.3027344 12.729867,2.1841004 12.051231,2.1034257 11.367188,2.0449219 9.9990988,1.9279143 8.6226457,1.9003906 8,1.9003906 Z M 8,3 C 9.1737429,3 13.470344,3.1152686 14.257812,3.7890625 14.962191,4.3917621 15,5.8071662 15,8.5 c 0,2.692834 -0.03781,4.108238 -0.742188,4.710938 C 13.470343,13.884732 9.1737429,14 8,14 6.8262571,14 2.5296555,13.884731 1.7421875,13.210938 1.0378081,12.608239 1,11.192834 1,8.5 1,5.8071662 1.0378081,4.3917621 1.7421875,3.7890625 2.5296555,3.1152686 6.8262571,3 8,3 Z m -2,3 0,5 5,-2.5 z"
     id="path4204"
     inkscape:connector-curvature="0"
     sodipodi:nodetypes="sssssssssssssssscssssssssssssscccc" />
</svg>

<?xml version="1.0" encoding="UTF-8"?>
<!-- Created with Inkscape (http://www.inkscape.org/) -->
<svg width="16" height="16" version="1.1" xmlns="http://www.w3.org/2000/svg" xmlns:cc="http://creativecommons.org/ns#" xmlns:dc="http://purl.org/dc/elements/1.1/" xmlns:rdf="http://www.w3.org/1999/02/22-rdf-syntax-ns#" xmlns:xlink="http://www.w3.org/1999/xlink">
	<defs>
		<radialGradient id="a" cx="8" cy="13.342" r="6" gradientTransform="matrix(2.6667 0 0 2 -14.346 -16.754)" gradientUnits="userSpaceOnUse">
			<stop stop-color="#213851" stop-opacity=".9059" offset="0"/>
			<stop stop-color="#27303a" stop-opacity="0" offset="1"/>
		</radialGradient>
		<radialGradient id="c" cx="7800.7" cy="-3926.4" r="6.5" gradientTransform="matrix(8.5282e-6 2.5506 -2.7632 0 -10842 -19890)" gradientUnits="userSpaceOnUse">
			<stop stop-color="#ffffff" stop-opacity=".74858" offset="0"/>
			<stop stop-color="#ffffff" stop-opacity=".60511" offset="1"/>
		</radialGradient>
	</defs>
	<metadata>
		<rdf:RDF>
			<cc:Work rdf:about="">
				<dc:format>image/svg+xml</dc:format>
				<dc:type rdf:resource="http://purl.org/dc/dcmitype/StillImage"/>
				<dc:title/>
			</cc:Work>
		</rdf:RDF>
	</metadata>
	<path d="m8 3c-1.1737 0-5.4712 0.11452-6.2587 0.78831-0.70438 0.6027-0.74132 2.0189-0.74132 4.7117 0 2.6928 0.03694 4.109 0.74132 4.7117 0.78747 0.67379 5.0849 0.78831 6.2587 0.78831s5.4712-0.11452 6.2587-0.78831c0.70438-0.6027 0.74132-2.0189 0.74132-4.7117 0-2.6928-0.03694-4.109-0.74132-4.7117-0.78747-0.67379-5.0849-0.78831-6.2587-0.78831zm-2 3 5 2.5-5 2.5z" color="#000000" fill="#090d11" fill-opacity=".76621" style="paint-order:normal"/>
	<path d="m8 3c-1.1737 0-5.4712 0.11452-6.2587 0.78831-0.70438 0.6027-0.74132 2.0189-0.74132 4.7117 0 2.6928 0.03694 4.109 0.74132 4.7117 0.78747 0.67379 5.0849 0.78831 6.2587 0.78831s5.4712-0.11452 6.2587-0.78831c0.70438-0.6027 0.74132-2.0189 0.74132-4.7117 0-2.6928-0.03694-4.109-0.74132-4.7117-0.78747-0.67379-5.0849-0.78831-6.2587-0.78831zm-2 3 5 2.5-5 2.5z" color="#000000" fill="url(#a)" fill-opacity=".7533" style="font-variant-east_asian:normal;paint-order:normal"/>
	<path d="m8 1.9004c-0.62265 0-1.9991 0.027524-3.3672 0.14453-0.68404 0.058504-1.3627 0.13918-1.9609 0.25781s-1.0858 0.17063-1.6465 0.65039c-0.66835 0.57187-0.89809 1.3902-1.0098 2.2695-0.11167 0.87929-0.11523 1.9259-0.11523 3.2773 0 1.3514 0.0035612 2.3981 0.11523 3.2773 0.11167 0.87929 0.34142 1.6977 1.0098 2.2695 0.5607 0.47976 1.0482 0.53176 1.6465 0.65039s1.2769 0.19931 1.9609 0.25781c1.3681 0.11701 2.7445 0.14453 3.3672 0.14453s1.9991-0.02752 3.3672-0.14453c0.68404-0.0585 1.3627-0.13918 1.9609-0.25781s1.0858-0.17063 1.6465-0.65039c0.66835-0.57187 0.89809-1.3902 1.0098-2.2695 0.11167-0.87929 0.11523-1.9259 0.11523-3.2773 0-1.3514-0.0036-2.3981-0.11523-3.2773-0.11167-0.87929-0.34142-1.6977-1.0098-2.2695-0.5607-0.47976-1.0482-0.53176-1.6465-0.65039s-1.2769-0.19931-1.9609-0.25781c-1.3681-0.11701-2.7445-0.14453-3.3672-0.14453zm0 1.0996c1.1737 0 5.4703 0.11527 6.2578 0.78906 0.70438 0.6027 0.74219 2.0181 0.74219 4.7109 0 2.6928-0.03781 4.1082-0.74219 4.7109-0.78747 0.67379-5.0841 0.78906-6.2578 0.78906s-5.4703-0.11527-6.2578-0.78906c-0.70438-0.6027-0.74219-2.0181-0.74219-4.7109 0-2.6928 0.037808-4.1082 0.74219-4.7109 0.78747-0.67379 5.0841-0.78906 6.2578-0.78906zm-2 3v5l5-2.5z" color="#000000" color-rendering="auto" fill="url(#c)" image-rendering="auto" shape-rendering="auto" solid-color="#000000" style="block-progression:tb;font-variant-east_asian:normal;isolation:auto;mix-blend-mode:normal;paint-order:normal;shape-padding:0;text-decoration-color:#000000;text-decoration-line:none;text-decoration-style:solid;text-indent:0;text-transform:none;white-space:normal"/>
</svg>
